X: 39669
T: Tennessee, The
R: waltz
M: 3/4
K: Gmajor
D>E|F2 A2 D>E|F2 A2 d>e|f2 f2- f>e|d2 B2- B>c|
d2 A2 F2|B2 A2 (3FGF|E4 E>F|E4 D>E|
F2 A2 D>E|F2 A2 d>e|f2 f2- f>e|d2 B2- B>c|
d2 A2 F2|G2 F2 E2|D4 D>E|D2- D>A d>e|
f2 a2 (3fgf|e2- e>e f>e|d2- d>c B>d|A2- A>F (3ABc|
d2 A2 (3E/F/E/D|B2 A2 (3FGF|E4 E>F|E4 D>E|
F2 A2 D>E|F2 A2 d>e|f2 f2- f>e|d2 B2- B>c|
d2 A2 F2|G2 F2 E2|D4 D>E|D4||

